Adwaita++-Light/panel/16/rto-proxy-tray.svg

<svg height="16" width="16" xmlns="http://www.w3.org/2000/svg">
  <path d="m8 1a7 7 0 0 0 -7 7 7 7 0 0 0 7 7 7 7 0 0 0 7-7 7 7 0 0 0 -7-7zm0 3 1.2363281 2.6328125 2.7636719.4238281-2 2.0488282.472656 2.8945312-2.472656-1.367188-2.4726562 1.367188.4726562-2.8945312-2-2.0488282 2.7636719-.4238281z" fill="#444"/>
</svg>

<svg xmlns="http://www.w3.org/2000/svg" width="16" height="16" version="1.1">
 <defs>
  <style id="current-color-scheme" type="text/css">
   .ColorScheme-Text { color:#444444; } .ColorScheme-Highlight { color:#4285f4; }
  </style>
 </defs>
 <path style="fill:currentColor" class="ColorScheme-Text" d="M 8 1 A 7 7 0 0 0 1 8 A 7 7 0 0 0 8 15 A 7 7 0 0 0 15 8 A 7 7 0 0 0 8 1 z M 8 4 L 9.2363281 6.6328125 L 12 7.0566406 L 10 9.1054688 L 10.472656 12 L 8 10.632812 L 5.5273438 12 L 6 9.1054688 L 4 7.0566406 L 6.7636719 6.6328125 L 8 4 z"/>
</svg>
